flaticon/technology/smart-tv.svg

<svg xmlns="http://www.w3.org/2000/svg" width="32" height="32" viewBox="0 0 24 24">
    <path d="M5.984375 6.601562L4.816406 6.601562C4.367188 6.601562 4 6.964844 4 7.414062L4 8.585938C4 9.035156 4.367188 9.398438 4.816406 9.398438L5.984375 9.398438C6.433594 9.398438 6.800781 9.035156 6.800781 8.585938L6.800781 7.414062C6.800781 6.964844 6.433594 6.601562 5.984375 6.601562zM6 8.585938C6 8.59375 5.992188 8.601562 5.984375 8.601562L4.800781 8.585938 4.816406 7.398438 6 7.414062zM10.386719 6.601562L9.214844 6.601562C8.765625 6.601562 8.398438 6.964844 8.398438 7.414062L8.398438 8.585938C8.398438 9.035156 8.765625 9.398438 9.214844 9.398438L10.386719 9.398438C10.835938 9.398438 11.199219 9.035156 11.199219 8.585938L11.199219 7.414062C11.199219 6.964844 10.835938 6.601562 10.386719 6.601562zM10.398438 8.585938C10.398438 8.59375 10.394531 8.601562 10.386719 8.601562L9.199219 8.585938 9.214844 7.398438 10.398438 7.414062zM13.613281 9.398438L14.785156 9.398438C15.234375 9.398438 15.601562 9.035156 15.601562 8.585938L15.601562 7.414062C15.601562 6.964844 15.234375 6.601562 14.785156 6.601562L13.613281 6.601562C13.164062 6.601562 12.800781 6.964844 12.800781 7.414062L12.800781 8.585938C12.800781 9.035156 13.164062 9.398438 13.613281 9.398438zM13.613281 7.398438L14.800781 7.414062 14.800781 8.585938C14.800781 8.59375 14.792969 8.601562 14.785156 8.601562L13.601562 8.585938zM18.015625 9.398438L19.183594 9.398438C19.632812 9.398438 20 9.035156 20 8.585938L20 7.414062C20 6.964844 19.632812 6.601562 19.183594 6.601562L18.015625 6.601562C17.566406 6.601562 17.199219 6.964844 17.199219 7.414062L17.199219 8.585938C17.199219 9.035156 17.566406 9.398438 18.015625 9.398438zM18.015625 7.398438L19.199219 7.414062 19.199219 8.585938C19.199219 8.59375 19.191406 8.601562 19.183594 8.601562L18 8.585938zM5.984375 11L4.816406 11C4.367188 11 4 11.367188 4 11.816406L4 12.984375C4 13.433594 4.367188 13.800781 4.816406 13.800781L5.984375 13.800781C6.433594 13.800781 6.800781 13.433594 6.800781 12.984375L6.800781 11.816406C6.800781 11.367188 6.433594 11 5.984375 11zM6 12.984375C6 12.992188 5.992188 13 5.984375 13L4.800781 12.984375 4.816406 11.800781 6 11.816406zM10.386719 11L9.214844 11C8.765625 11 8.398438 11.367188 8.398438 11.816406L8.398438 12.984375C8.398438 13.433594 8.765625 13.800781 9.214844 13.800781L10.386719 13.800781C10.835938 13.800781 11.199219 13.433594 11.199219 12.984375L11.199219 11.816406C11.199219 11.367188 10.835938 11 10.386719 11zM10.398438 12.984375C10.398438 12.992188 10.394531 13 10.386719 13L9.199219 12.984375 9.214844 11.800781 10.398438 11.816406zM13.613281 13.800781L14.785156 13.800781C15.234375 13.800781 15.601562 13.433594 15.601562 12.984375L15.601562 11.816406C15.601562 11.367188 15.234375 11 14.785156 11L13.613281 11C13.164062 11 12.800781 11.367188 12.800781 11.816406L12.800781 12.984375C12.800781 13.433594 13.164062 13.800781 13.613281 13.800781zM13.613281 11.800781L14.800781 11.816406 14.800781 12.984375C14.800781 12.992188 14.792969 13 14.785156 13L13.601562 12.984375zM18.015625 13.800781L19.183594 13.800781C19.632812 13.800781 20 13.433594 20 12.984375L20 11.816406C20 11.367188 19.632812 11 19.183594 11L18.015625 11C17.566406 11 17.199219 11.367188 17.199219 11.816406L17.199219 12.984375C17.199219 13.433594 17.566406 13.800781 18.015625 13.800781zM18.015625 11.800781L19.199219 11.816406 19.199219 12.984375C19.199219 12.992188 19.191406 13 19.183594 13L18 12.984375zM18.015625 11.800781"/>
    <path d="M 24 18.199219 L 24 2.199219 L 0 2.199219 L 0 18.199219 L 11.601562 18.199219 L 11.601562 19.800781 L 6 19.800781 L 6 21.800781 L 18 21.800781 L 18 19.800781 L 12.398438 19.800781 L 12.398438 18.199219 Z M 17.199219 20.601562 L 17.199219 21 L 6.800781 21 L 6.800781 20.601562 Z M 0.800781 3 L 23.199219 3 L 23.199219 17.398438 L 0.800781 17.398438 Z M 0.800781 3"/>
</svg>

<svg xmlns="http://www.w3.org/2000/svg" width="32" height="32" viewBox="0 0 24 24">
    <path d="M5.984 6.602H4.816A.815.815 0 0 0 4 7.414v1.172c0 .45.367.812.816.812h1.168c.45 0 .817-.363.817-.812V7.414a.815.815 0 0 0-.817-.812zM6 8.586a.017.017 0 0 1-.016.016l-1.183-.016.015-1.188L6 7.414zm0 0M10.387 6.602H9.215a.815.815 0 0 0-.817.812v1.172c0 .45.368.812.817.812h1.172c.449 0 .812-.363.812-.812V7.414a.812.812 0 0 0-.812-.812zm.011 1.984c0 .008-.003.016-.011.016l-1.188-.016.016-1.188 1.183.016zm0 0M13.613 9.398h1.172c.45 0 .817-.363.817-.812V7.414a.815.815 0 0 0-.817-.812h-1.172a.812.812 0 0 0-.812.812v1.172c0 .45.363.812.812.812zm0-2l1.188.016v1.172a.017.017 0 0 1-.016.016l-1.183-.016zm0 0M18.016 9.398h1.168c.449 0 .816-.363.816-.812V7.414a.815.815 0 0 0-.816-.812h-1.168a.815.815 0 0 0-.817.812v1.172c0 .45.367.812.817.812zm0-2l1.183.016v1.172a.017.017 0 0 1-.015.016L18 8.586zm0 0M5.984 11H4.816a.819.819 0 0 0-.816.816v1.168c0 .45.367.817.816.817h1.168c.45 0 .817-.367.817-.817v-1.168A.819.819 0 0 0 5.984 11zM6 12.984a.017.017 0 0 1-.016.016l-1.183-.016.015-1.183L6 11.816zm0 0M10.387 11H9.215a.819.819 0 0 0-.817.816v1.168c0 .45.368.817.817.817h1.172c.449 0 .812-.367.812-.817v-1.168a.815.815 0 0 0-.812-.816zm.011 1.984c0 .008-.003.016-.011.016l-1.188-.016.016-1.183 1.183.015zm0 0M13.613 13.8h1.172c.45 0 .817-.366.817-.816v-1.168a.819.819 0 0 0-.817-.816h-1.172a.815.815 0 0 0-.812.816v1.168c0 .45.363.817.812.817zm0-2l1.188.016v1.168a.017.017 0 0 1-.016.016l-1.183-.016zm0 0M18.016 13.8h1.168c.449 0 .816-.366.816-.816v-1.168a.819.819 0 0 0-.816-.816h-1.168a.819.819 0 0 0-.817.816v1.168c0 .45.367.817.817.817zm0-2l1.183.016v1.168a.017.017 0 0 1-.015.016L18 12.984zm0 0"/>
    <path d="M24 18.2v-16H0v16h11.602v1.6H6v2h12v-2h-5.602v-1.6zm-6.8 2.402V21H6.8v-.398zM.8 3h22.4v14.398H.8zm0 0"/>
</svg>
